bernoullicharts/exp_-x_flajolet__mean.svg

<?xml version="1.0" encoding="utf-8" standalone="no"?>
<!DOCTYPE svg PUBLIC "-//W3C//DTD SVG 1.1//EN"
  "http://www.w3.org/Graphics/SVG/1.1/DTD/svg11.dtd">
<!-- Created with matplotlib (https://matplotlib.org/) -->
<svg height="345.6pt" version="1.1" viewBox="0 0 460.8 345.6" width="460.8pt" xmlns="http://www.w3.org/2000/svg" xmlns:xlink="http://www.w3.org/1999/xlink">
 <defs>
  <style type="text/css">
*{stroke-linecap:butt;stroke-linejoin:round;}
  </style>
 </defs>
 <g id="figure_1">
  <g id="patch_1">
   <path d="M 0 345.6 
L 460.8 345.6 
L 460.8 0 
L 0 0 
z
" style="fill:#ffffff;"/>
  </g>
  <g id="axes_1">
   <g id="patch_2">
    <path d="M 57.6 307.584 
L 414.72 307.584 
L 414.72 41.472 
L 57.6 41.472 
z
" style="fill:#ffffff;"/>
   </g>
   <g id="matplotlib.axis_1">
    <g id="xtick_1">
     <g id="line2d_1">
      <defs>
       <path d="M 0 0 
L 0 3.5 
" id="m97f00cd8b6" style="stroke:#000000;stroke-width:0.8;"/>
      </defs>
      <g>
       <use style="stroke:#000000;stroke-width:0.8;" x="73.800255" xlink:href="#m97f00cd8b6" y="307.584"/>
      </g>
     </g>
     <g id="text_1">
      <text style="font-family:DejaVu Sans;font-size:10px;font-style:normal;font-weight:normal;text-anchor:middle;" transform="rotate(-0, 73.800255, 322.182437)" x="73.800255" y="322.182437">0.0</text>
     </g>
    </g>
    <g id="xtick_2">
     <g id="line2d_2">
      <g>
       <use style="stroke:#000000;stroke-width:0.8;" x="138.744153" xlink:href="#m97f00cd8b6" y="307.584"/>
      </g>
     </g>
     <g id="text_2">
      <text style="font-family:DejaVu Sans;font-size:10px;font-style:normal;font-weight:normal;text-anchor:middle;" transform="rotate(-0, 138.744153, 322.182437)" x="138.744153" y="322.182437">0.2</text>
     </g>
    </g>
    <g id="xtick_3">
     <g id="line2d_3">
      <g>
       <use style="stroke:#000000;stroke-width:0.8;" x="203.688051" xlink:href="#m97f00cd8b6" y="307.584"/>
      </g>
     </g>
     <g id="text_3">
      <text style="font-family:DejaVu Sans;font-size:10px;font-style:normal;font-weight:normal;text-anchor:middle;" transform="rotate(-0, 203.688051, 322.182437)" x="203.688051" y="322.182437">0.4</text>
     </g>
    </g>
    <g id="xtick_4">
     <g id="line2d_4">
      <g>
       <use style="stroke:#000000;stroke-width:0.8;" x="268.631949" xlink:href="#m97f00cd8b6" y="307.584"/>
      </g>
     </g>
     <g id="text_4">
      <text style="font-family:DejaVu Sans;font-size:10px;font-style:normal;font-weight:normal;text-anchor:middle;" transform="rotate(-0, 268.631949, 322.182437)" x="268.631949" y="322.182437">0.6</text>
     </g>
    </g>
    <g id="xtick_5">
     <g id="line2d_5">
      <g>
       <use style="stroke:#000000;stroke-width:0.8;" x="333.575847" xlink:href="#m97f00cd8b6" y="307.584"/>
      </g>
     </g>
     <g id="text_5">
      <text style="font-family:DejaVu Sans;font-size:10px;font-style:normal;font-weight:normal;text-anchor:middle;" transform="rotate(-0, 333.575847, 322.182437)" x="333.575847" y="322.182437">0.8</text>
     </g>
    </g>
    <g id="xtick_6">
     <g id="line2d_6">
      <g>
       <use style="stroke:#000000;stroke-width:0.8;" x="398.519745" xlink:href="#m97f00cd8b6" y="307.584"/>
      </g>
     </g>
     <g id="text_6">
      <text style="font-family:DejaVu Sans;font-size:10px;font-style:normal;font-weight:normal;text-anchor:middle;" transform="rotate(-0, 398.519745, 322.182437)" x="398.519745" y="322.182437">1.0</text>
     </g>
    </g>
    <g id="text_7">
     <text style="font-family:DejaVu Sans;font-size:10px;font-style:normal;font-weight:normal;text-anchor:middle;" transform="rotate(-0, 236.16, 335.860562)" x="236.16" y="335.860562">Input Coin's Heads Probability (λ)</text>
    </g>
   </g>
   <g id="matplotlib.axis_2">
    <g id="ytick_1">
     <g id="line2d_7">
      <defs>
       <path d="M 0 0 
L -3.5 0 
" id="mf991e92f59" style="stroke:#000000;stroke-width:0.8;"/>
      </defs>
      <g>
       <use style="stroke:#000000;stroke-width:0.8;" x="57.6" xlink:href="#mf991e92f59" y="276.878769"/>
      </g>
     </g>
     <g id="text_8">
      <text style="font-family:DejaVu Sans;font-size:10px;font-style:normal;font-weight:normal;text-anchor:end;" transform="rotate(-0, 50.6, 280.677988)" x="50.6" y="280.677988">0.4</text>
     </g>
    </g>
    <g id="ytick_2">
     <g id="line2d_8">
      <g>
       <use style="stroke:#000000;stroke-width:0.8;" x="57.6" xlink:href="#mf991e92f59" y="239.660308"/>
      </g>
     </g>
     <g id="text_9">
      <text style="font-family:DejaVu Sans;font-size:10px;font-style:normal;font-weight:normal;text-anchor:end;" transform="rotate(-0, 50.6, 243.459526)" x="50.6" y="243.459526">0.5</text>
     </g>
    </g>
    <g id="ytick_3">
     <g id="line2d_9">
      <g>
       <use style="stroke:#000000;stroke-width:0.8;" x="57.6" xlink:href="#mf991e92f59" y="202.441846"/>
      </g>
     </g>
     <g id="text_10">
      <text style="font-family:DejaVu Sans;font-size:10px;font-style:normal;font-weight:normal;text-anchor:end;" transform="rotate(-0, 50.6, 206.241065)" x="50.6" y="206.241065">0.6</text>
     </g>
    </g>
    <g id="ytick_4">
     <g id="line2d_10">
      <g>
       <use style="stroke:#000000;stroke-width:0.8;" x="57.6" xlink:href="#mf991e92f59" y="165.223385"/>
      </g>
     </g>
     <g id="text_11">
      <text style="font-family:DejaVu Sans;font-size:10px;font-style:normal;font-weight:normal;text-anchor:end;" transform="rotate(-0, 50.6, 169.022603)" x="50.6" y="169.022603">0.7</text>
     </g>
    </g>
    <g id="ytick_5">
     <g id="line2d_11">
      <g>
       <use style="stroke:#000000;stroke-width:0.8;" x="57.6" xlink:href="#mf991e92f59" y="128.004923"/>
      </g>
     </g>
     <g id="text_12">
      <text style="font-family:DejaVu Sans;font-size:10px;font-style:normal;font-weight:normal;text-anchor:end;" transform="rotate(-0, 50.6, 131.804142)" x="50.6" y="131.804142">0.8</text>
     </g>
    </g>
    <g id="ytick_6">
     <g id="line2d_12">
      <g>
       <use style="stroke:#000000;stroke-width:0.8;" x="57.6" xlink:href="#mf991e92f59" y="90.786462"/>
      </g>
     </g>
     <g id="text_13">
      <text style="font-family:DejaVu Sans;font-size:10px;font-style:normal;font-weight:normal;text-anchor:end;" transform="rotate(-0, 50.6, 94.58568)" x="50.6" y="94.58568">0.9</text>
     </g>
    </g>
    <g id="ytick_7">
     <g id="line2d_13">
      <g>
       <use style="stroke:#000000;stroke-width:0.8;" x="57.6" xlink:href="#mf991e92f59" y="53.568"/>
      </g>
     </g>
     <g id="text_14">
      <text style="font-family:DejaVu Sans;font-size:10px;font-style:normal;font-weight:normal;text-anchor:end;" transform="rotate(-0, 50.6, 57.367219)" x="50.6" y="57.367219">1.0</text>
     </g>
    </g>
    <g id="text_15">
     <text style="font-family:DejaVu Sans;font-size:10px;font-style:normal;font-weight:normal;text-anchor:middle;" transform="rotate(-90, 28.617187, 174.528)" x="28.617187" y="174.528">Simulated Mean / Function Value</text>
    </g>
   </g>
   <g id="line2d_14">
    <path clip-path="url(#p3b62133ef4)" d="M 73.832727 53.605217 
L 77.112066 57.344616 
L 80.391405 61.04644 
L 83.670744 64.711069 
L 86.950083 68.338874 
L 90.229421 71.930227 
L 93.50876 75.485493 
L 96.788099 79.005035 
L 100.067438 82.489213 
L 103.346777 85.938381 
L 106.626116 89.352891 
L 109.905455 92.733091 
L 113.184793 96.079327 
L 116.464132 99.391939 
L 119.743471 102.671265 
L 123.02281 105.91764 
L 126.302149 109.131395 
L 129.581488 112.312858 
L 132.860826 115.462353 
L 136.140165 118.580201 
L 139.419504 121.66672 
L 142.698843 124.722226 
L 145.978182 127.747029 
L 149.257521 130.741439 
L 152.53686 133.70576 
L 155.816198 136.640296 
L 159.095537 139.545344 
L 162.374876 142.421203 
L 165.654215 145.268164 
L 168.933554 148.086518 
L 172.212893 150.876553 
L 175.492231 153.638554 
L 178.77157 156.372801 
L 182.050909 159.079574 
L 185.330248 161.759149 
L 188.609587 164.4118 
L 191.888926 167.037796 
L 195.168264 169.637405 
L 198.447603 172.210893 
L 201.726942 174.758523 
L 205.006281 177.280553 
L 208.28562 179.777242 
L 211.564959 182.248843 
L 214.844298 184.69561 
L 218.123636 187.117791 
L 221.402975 189.515633 
L 224.682314 191.889382 
L 227.961653 194.239278 
L 231.240992 196.565563 
L 234.520331 198.868472 
L 237.799669 201.148242 
L 241.079008 203.405104 
L 244.358347 205.639289 
L 247.637686 207.851024 
L 250.917025 210.040536 
L 254.196364 212.208046 
L 257.475702 214.353778 
L 260.755041 216.477948 
L 264.03438 218.580775 
L 267.313719 220.662472 
L 270.593058 222.723252 
L 273.872397 224.763325 
L 277.151736 226.782899 
L 280.431074 228.78218 
L 283.710413 230.761371 
L 286.989752 232.720676 
L 290.269091 234.660293 
L 293.54843 236.58042 
L 296.827769 238.481254 
L 300.107107 240.362988 
L 303.386446 242.225813 
L 306.665785 244.069921 
L 309.945124 245.895499 
L 313.224463 247.702733 
L 316.503802 249.491808 
L 319.78314 251.262906 
L 323.062479 253.016208 
L 326.341818 254.751892 
L 329.621157 256.470136 
L 332.900496 258.171114 
L 336.179835 259.855001 
L 339.459174 261.521968 
L 342.738512 263.172185 
L 346.017851 264.80582 
L 349.29719 266.42304 
L 352.576529 268.02401 
L 355.855868 269.608893 
L 359.135207 271.177852 
L 362.414545 272.731044 
L 365.693884 274.268631 
L 368.973223 275.790767 
L 372.252562 277.297609 
L 375.531901 278.789309 
L 378.81124 280.266021 
L 382.090579 281.727894 
L 385.369917 283.175079 
L 388.649256 284.607722 
L 391.928595 286.025969 
L 395.207934 287.429965 
L 398.487273 288.819854 
" style="fill:none;stroke:#1f77b4;stroke-linecap:square;stroke-width:1.5;"/>
   </g>
   <g id="line2d_15">
    <path clip-path="url(#p3b62133ef4)" d="M 73.832727 53.568 
L 77.112066 56.545477 
L 80.391405 59.522954 
L 83.670744 61.011692 
L 86.950083 69.199754 
L 90.229421 81.109662 
L 93.50876 78.132185 
L 96.788099 78.876554 
L 100.067438 82.5984 
L 103.346777 81.854031 
L 106.626116 97.485785 
L 109.905455 84.831508 
L 113.184793 101.207631 
L 116.464132 99.718892 
L 119.743471 111.6288 
L 123.02281 112.373169 
L 126.302149 119.816862 
L 129.581488 107.906954 
L 132.860826 113.861908 
L 136.140165 122.049969 
L 139.419504 125.771815 
L 142.698843 119.072492 
L 145.978182 120.561231 
L 149.257521 130.9824 
L 152.53686 118.328123 
L 155.816198 150.336 
L 159.095537 142.892308 
L 162.374876 144.381046 
L 165.654215 133.215508 
L 168.933554 148.847262 
L 172.212893 163.734646 
L 175.492231 149.591631 
L 178.77157 156.290954 
L 182.050909 166.712123 
L 185.330248 156.290954 
L 188.609587 168.945231 
L 191.888926 185.321354 
L 195.168264 174.900185 
L 198.447603 165.223385 
L 201.726942 183.832615 
L 205.006281 187.554462 
L 208.28562 178.622031 
L 211.564959 196.486892 
L 214.844298 184.576985 
L 218.123636 183.088246 
L 221.402975 184.576985 
L 224.682314 190.531938 
L 227.961653 199.464369 
L 231.240992 200.953108 
L 234.520331 200.208738 
L 237.799669 196.486892 
L 241.079008 197.975631 
L 244.358347 212.863015 
L 247.637686 200.953108 
L 250.917025 215.096123 
L 254.196364 209.141169 
L 257.475702 220.306708 
L 260.755041 200.208738 
L 264.03438 233.705354 
L 267.313719 227.006031 
L 270.593058 210.629908 
L 273.872397 228.494769 
L 277.151736 222.539815 
L 280.431074 220.306708 
L 283.710413 229.983508 
L 286.989752 235.194092 
L 290.269091 226.261662 
L 293.54843 252.314585 
L 296.827769 234.449723 
L 300.107107 245.615262 
L 303.386446 241.893415 
L 306.665785 248.592738 
L 309.945124 241.149046 
L 313.224463 247.848369 
L 316.503802 263.480123 
L 319.78314 261.991385 
L 323.062479 239.660308 
L 326.341818 254.547692 
L 329.621157 258.269538 
L 332.900496 252.314585 
L 336.179835 271.668185 
L 339.459174 250.081477 
L 342.738512 256.036431 
L 346.017851 282.833723 
L 349.29719 272.412554 
L 352.576529 261.247015 
L 355.855868 264.968862 
L 359.135207 271.668185 
L 362.414545 267.201969 
L 365.693884 285.8112 
L 368.973223 276.1344 
L 372.252562 266.4576 
L 375.531901 272.412554 
L 378.81124 290.277415 
L 382.090579 285.066831 
L 385.369917 295.488 
" style="fill:none;stroke:#ff7f0e;stroke-linecap:square;stroke-width:1.5;"/>
   </g>
   <g id="patch_3">
    <path d="M 57.6 307.584 
L 57.6 41.472 
" style="fill:none;stroke:#000000;stroke-linecap:square;stroke-linejoin:miter;stroke-width:0.8;"/>
   </g>
   <g id="patch_4">
    <path d="M 414.72 307.584 
L 414.72 41.472 
" style="fill:none;stroke:#000000;stroke-linecap:square;stroke-linejoin:miter;stroke-width:0.8;"/>
   </g>
   <g id="patch_5">
    <path d="M 57.6 307.584 
L 414.72 307.584 
" style="fill:none;stroke:#000000;stroke-linecap:square;stroke-linejoin:miter;stroke-width:0.8;"/>
   </g>
   <g id="patch_6">
    <path d="M 57.6 41.472 
L 414.72 41.472 
" style="fill:none;stroke:#000000;stroke-linecap:square;stroke-linejoin:miter;stroke-width:0.8;"/>
   </g>
   <g id="text_16">
    <text style="font-family:DejaVu Sans;font-size:12px;font-style:normal;font-weight:normal;text-anchor:middle;" transform="rotate(-0, 236.16, 35.472)" x="236.16" y="35.472">Expected Value in exp(-x) (Flajolet) Algorithm</text>
   </g>
   <g id="legend_1">
    <g id="patch_7">
     <path d="M 195.804375 78.82825 
L 407.72 78.82825 
Q 409.72 78.82825 409.72 76.82825 
L 409.72 48.472 
Q 409.72 46.472 407.72 46.472 
L 195.804375 46.472 
Q 193.804375 46.472 193.804375 48.472 
L 193.804375 76.82825 
Q 193.804375 78.82825 195.804375 78.82825 
z
" style="fill:#ffffff;opacity:0.8;stroke:#cccccc;stroke-linejoin:miter;"/>
    </g>
    <g id="line2d_16">
     <path d="M 197.804375 54.570437 
L 217.804375 54.570437 
" style="fill:none;stroke:#1f77b4;stroke-linecap:square;stroke-width:1.5;"/>
    </g>
    <g id="line2d_17"/>
    <g id="text_17">
     <text style="font-family:DejaVu Sans;font-size:10px;font-style:normal;font-weight:normal;text-anchor:start;" transform="rotate(-0, 225.804375, 58.070437)" x="225.804375" y="58.070437">exp(-x)</text>
    </g>
    <g id="line2d_18">
     <path d="M 197.804375 69.248562 
L 217.804375 69.248562 
" style="fill:none;stroke:#ff7f0e;stroke-linecap:square;stroke-width:1.5;"/>
    </g>
    <g id="line2d_19"/>
    <g id="text_18">
     <text style="font-family:DejaVu Sans;font-size:10px;font-style:normal;font-weight:normal;text-anchor:start;" transform="rotate(-0, 225.804375, 72.748562)" x="225.804375" y="72.748562">Simulated Mean of exp(-x) (Flajolet)</text>
    </g>
   </g>
  </g>
 </g>
 <defs>
  <clipPath id="p3b62133ef4">
   <rect height="266.112" width="357.12" x="57.6" y="41.472"/>
  </clipPath>
 </defs>
</svg>

<svg height="460.8" viewBox="0 0 460.8 345.6" width="614.4" xmlns="http://www.w3.org/2000/svg" xmlns:xlink="http://www.w3.org/1999/xlink"><defs><style>*{stroke-linecap:butt;stroke-linejoin:round}</style></defs><g id="figure_1"><path d="M0 345.6h460.8V0H0z" fill="#fff" id="patch_1"/><g id="axes_1"><path d="M57.6 307.584h357.12V41.472H57.6z" fill="#fff" id="patch_2"/><g id="matplotlib.axis_1"><g id="xtick_1"><g id="line2d_1"><defs><path d="M0 0v3.5" id="m97f00cd8b6" stroke="#000" stroke-width=".8"/></defs><use x="73.8" xlink:href="#m97f00cd8b6" y="307.584" stroke="#000" stroke-width=".8"/></g><text x="73.8" y="322.182" font-family="DejaVu Sans" font-size="10" font-weight="400" text-anchor="middle" id="text_1">0.0</text></g><g id="xtick_2"><use x="138.744" xlink:href="#m97f00cd8b6" y="307.584" stroke="#000" stroke-width=".8" id="line2d_2"/><text x="138.744" y="322.182" font-family="DejaVu Sans" font-size="10" font-weight="400" text-anchor="middle" id="text_2">0.2</text></g><g id="xtick_3"><use x="203.688" xlink:href="#m97f00cd8b6" y="307.584" stroke="#000" stroke-width=".8" id="line2d_3"/><text x="203.688" y="322.182" font-family="DejaVu Sans" font-size="10" font-weight="400" text-anchor="middle" id="text_3">0.4</text></g><g id="xtick_4"><use x="268.632" xlink:href="#m97f00cd8b6" y="307.584" stroke="#000" stroke-width=".8" id="line2d_4"/><text x="268.632" y="322.182" font-family="DejaVu Sans" font-size="10" font-weight="400" text-anchor="middle" id="text_4">0.6</text></g><g id="xtick_5"><use x="333.576" xlink:href="#m97f00cd8b6" y="307.584" stroke="#000" stroke-width=".8" id="line2d_5"/><text x="333.576" y="322.182" font-family="DejaVu Sans" font-size="10" font-weight="400" text-anchor="middle" id="text_5">0.8</text></g><g id="xtick_6"><use x="398.52" xlink:href="#m97f00cd8b6" y="307.584" stroke="#000" stroke-width=".8" id="line2d_6"/><text x="398.52" y="322.182" font-family="DejaVu Sans" font-size="10" font-weight="400" text-anchor="middle" id="text_6">1.0</text></g><text x="236.16" y="335.861" font-family="DejaVu Sans" font-size="10" font-weight="400" text-anchor="middle" id="text_7">Input Coin&apos;s Heads Probability (λ)</text></g><g id="matplotlib.axis_2"><g id="ytick_1"><g id="line2d_7"><defs><path d="M0 0h-3.5" id="mf991e92f59" stroke="#000" stroke-width=".8"/></defs><use x="57.6" xlink:href="#mf991e92f59" y="276.879" stroke="#000" stroke-width=".8"/></g><text x="50.6" y="280.678" font-family="DejaVu Sans" font-size="10" font-weight="400" text-anchor="end" id="text_8">0.4</text></g><g id="ytick_2"><use x="57.6" xlink:href="#mf991e92f59" y="239.66" stroke="#000" stroke-width=".8" id="line2d_8"/><text x="50.6" y="243.46" font-family="DejaVu Sans" font-size="10" font-weight="400" text-anchor="end" id="text_9">0.5</text></g><g id="ytick_3"><use x="57.6" xlink:href="#mf991e92f59" y="202.442" stroke="#000" stroke-width=".8" id="line2d_9"/><text x="50.6" y="206.241" font-family="DejaVu Sans" font-size="10" font-weight="400" text-anchor="end" id="text_10">0.6</text></g><g id="ytick_4"><use x="57.6" xlink:href="#mf991e92f59" y="165.223" stroke="#000" stroke-width=".8" id="line2d_10"/><text x="50.6" y="169.023" font-family="DejaVu Sans" font-size="10" font-weight="400" text-anchor="end" id="text_11">0.7</text></g><g id="ytick_5"><use x="57.6" xlink:href="#mf991e92f59" y="128.005" stroke="#000" stroke-width=".8" id="line2d_11"/><text x="50.6" y="131.804" font-family="DejaVu Sans" font-size="10" font-weight="400" text-anchor="end" id="text_12">0.8</text></g><g id="ytick_6"><use x="57.6" xlink:href="#mf991e92f59" y="90.786" stroke="#000" stroke-width=".8" id="line2d_12"/><text x="50.6" y="94.586" font-family="DejaVu Sans" font-size="10" font-weight="400" text-anchor="end" id="text_13">0.9</text></g><g id="ytick_7"><use x="57.6" xlink:href="#mf991e92f59" y="53.568" stroke="#000" stroke-width=".8" id="line2d_13"/><text x="50.6" y="57.367" font-family="DejaVu Sans" font-size="10" font-weight="400" text-anchor="end" id="text_14">1.0</text></g><text transform="rotate(-90 28.617 174.528)" x="28.617" y="174.528" font-family="DejaVu Sans" font-size="10" font-weight="400" text-anchor="middle" id="text_15">Simulated Mean / Function Value</text></g><path clip-path="url(#p3b62133ef4)" d="M73.833 53.605l3.28 3.74 3.278 3.701 3.28 3.665 3.28 3.628 3.278 3.591 3.28 3.555 3.28 3.52 3.278 3.484 3.28 3.45 3.28 3.414 3.278 3.38 3.28 3.346 3.28 3.313 3.278 3.28 3.28 3.246 3.28 3.213 3.278 3.182 3.28 3.15 3.28 3.117 3.279 3.087 3.279 3.055 3.28 3.025 3.279 2.994 3.279 2.965 3.28 2.934 3.279 2.905 3.279 2.876 3.28 2.847 3.279 2.819 3.279 2.79 3.28 2.762 3.279 2.734 3.279 2.707 3.28 2.68 3.279 2.652 3.279 2.626 3.28 2.6 3.279 2.573 3.279 2.548 3.28 2.522 3.279 2.496 3.279 2.472 3.28 2.447 3.279 2.422 3.279 2.398 3.28 2.373 3.279 2.35 3.279 2.327 3.28 2.302 3.279 2.28 3.279 2.257 3.28 2.234 3.279 2.212 3.279 2.19 3.28 2.167 3.279 2.146 3.279 2.124 3.28 2.103 3.279 2.081 3.28 2.061 3.278 2.04 3.28 2.02 3.28 2 3.278 1.978 3.28 1.96 3.28 1.94 3.278 1.92 3.28 1.9 3.28 1.882 3.278 1.863 3.28 1.844 3.28 1.825 3.278 1.808 3.28 1.789 3.28 1.77 3.278 1.754 3.28 1.736 3.28 1.718 3.278 1.701 3.28 1.684 3.28 1.667 3.279 1.65 3.279 1.634 3.28 1.617 3.279 1.601 3.279 1.585 3.28 1.569 3.279 1.553 3.279 1.538 3.28 1.522 3.279 1.507 3.279 1.491 3.28 1.477 3.279 1.462 3.279 1.447 3.28 1.433 3.279 1.418 3.279 1.404 3.28 1.39" fill="none" stroke="#1f77b4" stroke-linecap="square" stroke-width="1.5" id="line2d_14"/><path clip-path="url(#p3b62133ef4)" d="M73.833 53.568l3.28 2.977 3.278 2.978 3.28 1.489 3.28 8.188 3.278 11.91 3.28-2.978 3.28.745 3.278 3.721 3.28-.744 3.28 15.632 3.278-12.654 3.28 16.376 3.28-1.49 3.278 11.91 3.28.745 3.28 7.444 3.278-11.91 3.28 5.955 3.28 8.188 3.279 3.722 3.279-6.7 3.28 1.49 3.279 10.42 3.279-12.654 3.28 32.008 3.279-7.444 3.279 1.489 3.28-11.165 3.279 15.631 3.279 14.888 3.28-14.143 3.279 6.699 3.279 10.421 3.28-10.421 3.279 12.654 3.279 16.376 3.28-10.42 3.279-9.678 3.279 18.61 3.28 3.721 3.279-8.932 3.279 17.865 3.28-11.91 3.279-1.489 3.279 1.489 3.28 5.955 3.279 8.932 3.279 1.49 3.28-.745 3.279-3.722 3.279 1.489 3.28 14.887 3.279-11.91 3.279 14.143 3.28-5.955 3.279 11.166 3.279-20.098 3.28 33.496 3.279-6.699 3.28-16.376 3.278 17.865 3.28-5.955 3.28-2.233 3.278 9.677 3.28 5.21 3.28-8.932 3.278 26.053 3.28-17.865 3.28 11.165 3.278-3.722 3.28 6.7 3.28-7.444 3.278 6.7 3.28 15.631 3.28-1.489 3.278-22.33 3.28 14.887 3.28 3.722 3.278-5.955 3.28 19.353 3.28-21.587 3.279 5.955 3.279 26.798 3.28-10.421 3.279-11.166 3.279 3.722 3.28 6.7 3.279-4.467 3.279 18.61 3.28-9.678 3.279-9.676 3.279 5.955 3.28 17.864 3.279-5.21 3.279 10.421" fill="none" stroke="#ff7f0e" stroke-linecap="square" stroke-width="1.5" id="line2d_15"/><path d="M57.6 307.584V41.472" fill="none" stroke="#000" stroke-linecap="square" stroke-width=".8" id="patch_3"/><path d="M414.72 307.584V41.472" fill="none" stroke="#000" stroke-linecap="square" stroke-width=".8" id="patch_4"/><path d="M57.6 307.584h357.12" fill="none" stroke="#000" stroke-linecap="square" stroke-width=".8" id="patch_5"/><path d="M57.6 41.472h357.12" fill="none" stroke="#000" stroke-linecap="square" stroke-width=".8" id="patch_6"/><text x="236.16" y="35.472" font-family="DejaVu Sans" font-size="12" font-weight="400" text-anchor="middle" id="text_16">Expected Value in exp(-x) (Flajolet) Algorithm</text><g id="legend_1"><path d="M195.804 78.828H407.72q2 0 2-2V48.472q0-2-2-2H195.804q-2 0-2 2v28.356q0 2 2 2z" fill="#fff" opacity=".8" stroke="#ccc" id="patch_7"/><path d="M197.804 54.57h20" fill="none" stroke="#1f77b4" stroke-linecap="square" stroke-width="1.5" id="line2d_16"/><text x="225.804" y="58.07" font-family="DejaVu Sans" font-size="10" font-weight="400" id="text_17">exp(-x)</text><path d="M197.804 69.249h20" fill="none" stroke="#ff7f0e" stroke-linecap="square" stroke-width="1.5" id="line2d_18"/><text x="225.804" y="72.749" font-family="DejaVu Sans" font-size="10" font-weight="400" id="text_18">Simulated Mean of exp(-x) (Flajolet)</text></g></g></g><defs><clipPath id="p3b62133ef4"><path d="M57.6 41.472h357.12v266.112H57.6z"/></clipPath></defs></svg>
